!!!COA:	Josquin des Prez
!!!CDT:	~1450-1521/08/27
!!!OTL@@LAT:	De profundis clamavi
!!!OTL2@@LAT:	A custodia
!!!AGN:	Motet
!!!SCT:	NJE 15.11
!!!SCA:	New Josquin Edition 15.11
!!!voices:	4
**kern	**text	**kern	**text	**kern	**text	**kern	**text
*staff4	*staff4	*staff3	*staff3	*staff2	*staff2	*staff1	*staff1
*Ivox	*	*Ivox	*	*Ivox	*	*Ivox	*
*I"Bassus	*	*I"Tenor	*	*I"Altus	*	*I"Superius	*
*I'B	*	*I'T	*	*I'A	*	*I'S	*
*>[A,B]	*>[A,B]	*>[A,B]	*>[A,B]	*>[A,B]	*>[A,B]	*>[A,B]	*>[A,B]
*>A	*>A	*>A	*>A	*>A	*>A	*>A	*>A
*clefF4	*	*clefGv2	*	*clefGv2	*	*clefG2	*
*k[]	*	*k[]	*	*k[]	*	*k[]	*
*M2/1	*	*M2/1	*	*M2/1	*	*M2/1	*
*met(C|)	*	*met(C|)	*	*met(C|)	*	*met(C|)	*
=1-	=1-	=1-	=1-	=1-	=1-	=1-	=1-
0r	.	0r	.	1r	.	[0e	De
.	.	.	.	[1A	De	.	.
=2	=2	=2	=2	=2	=2	=2	=2
0r	.	0r	.	0A]	.	1e]	.
.	.	.	.	.	.	1c	pro-
=3	=3	=3	=3	=3	=3	=3	=3
0r	.	0r	.	1F	pro-	1d	.
.	.	.	.	1G	.	[1e	-fun-
=4	=4	=4	=4	=4	=4	=4	=4
0r	.	0r	.	1.A	-fun-	2e/]	.
.	.	.	.	.	.	2A/	.
.	.	.	.	.	.	[1A	-dis
.	.	.	.	2D/	.	.	.
=5	=5	=5	=5	=5	=5	=5	=5
0r	.	0r	.	0D	-dis	1A]	.
.	.	.	.	.	.	1f	cla-
=6	=6	=6	=6	=6	=6	=6	=6
0r	.	0r	.	1r	.	0f	-ma-
.	.	.	.	1d	cla-	.	.
=7	=7	=7	=7	=7	=7	=7	=7
0r	.	0r	.	2c\	-ma	0e	-vi
.	.	.	.	2.A/	.	.	.
.	.	.	.	4G/	.	.	.
.	.	.	.	2G/	vi	.	.
=8	=8	=8	=8	=8	=8	=8	=8
0r	.	0r	.	4A/	ad	1e	ad-
.	.	.	.	4G/	.	.	.
.	.	.	.	2c\	.	.	.
.	.	.	.	2B\	te	2d/	-te
.	.	.	.	[2A/	Do-	2c/	Do-
=9	=9	=9	=9	=9	=9	=9	=9
1r	.	[0E	De-	2A/]	.	1B	.
.	.	.	.	2G#i/	.	.	.
[1AA	De	.	.	1A	.	2A/	.
.	.	.	.	.	.	[2c/	.
=10	=10	=10	=10	=10	=10	=10	=10
0AA]	.	1E]	.	1.c	.	4c/]	.
.	.	.	.	.	.	4d/	.
.	.	.	.	.	.	1e	.
.	.	1C	-pro-	.	.	.	.
.	.	.	.	2B\	.	4d/	.
.	.	.	.	.	.	4c/	.
=11	=11	=11	=11	=11	=11	=11	=11
1FF	pro-	1D	.	1A	.	2.f/	.
.	.	.	.	.	.	4e/	.
1GG	.	[1E	-fun-	2G/	.	4e/	.
.	.	.	.	.	.	4d/	.
.	.	.	.	2F/	.	[2d/	.
=12	=12	=12	=12	=12	=12	=12	=12
1.AA	-fun	2E/]	.	1.E	.	2d/]	.
.	.	2C/	.	.	.	4c#i/	.
.	.	.	.	.	.	4B/	.
.	.	[1AA	-dis	.	.	2c#i/	.
2DD/	.	.	.	2D/	-mi-	2d/	-mi-
=13	=13	=13	=13	=13	=13	=13	=13
0DD	dis	1AA]	.	0D	-ne	[0d	-ne
.	.	1F	cla-	.	.	.	.
=14	=14	=14	=14	=14	=14	=14	=14
1r	.	0F	-ma-	0r	.	0d]	.
1D	cla-	.	.	.	.	.	.
=15	=15	=15	=15	=15	=15	=15	=15
2C/	-ma	0E	-vi	0r	.	0r	.
2.AA/	.	.	.	.	.	.	.
4GG/	.	.	.	.	.	.	.
2GG/	vi	.	.	.	.	.	.
=16	=16	=16	=16	=16	=16	=16	=16
4AA/	ad	1E	ad	0r	.	0r	.
4GG/	.	.	.	.	.	.	.
2C/	.	.	.	.	.	.	.
2BB/	te	2D/	te	.	.	.	.
[2AA/	Do-	2C/	Do-	.	.	.	.
=17	=17	=17	=17	=17	=17	=17	=17
2AA/]	.	1BB	-me-	1r	.	1r	.
2GG#i/	-mi-	.	.	.	.	.	.
1AA	-ne	1AA	-ne	2r	.	[1c	Do-
.	.	.	.	[2A/	Do-	.	.
=18	=18	=18	=18	=18	=18	=18	=18
2r	.	1.F	Do-	2A/]	.	2c/]	.
2.FF/	Do-	.	.	2A/	-mi-	2c/	-mi-
.	.	.	.	[1A	-ne	2.c/	-ne-
4GG/	.	.	.	.	.	.	.
4AA/	.	2F/	-mi-	.	.	.	.
4BB/	.	.	.	.	.	4d/	.
=19	=19	=19	=19	=19	=19	=19	=19
2C/	.	2E/	-ne	1A]	.	1e	.
2C/	-mi-	2E/	ex-	.	.	.	.
2FF/	-ne	1A	-au-	1r	.	2r	.
2FF/	ex-	.	.	.	.	2f/	-ex-
=20	=20	=20	=20	=20	=20	=20	=20
1C	-au-	1G	-di	1c	ex-	1g	-au-
2.C/	-di	2r	.	1c	-au	[1g	-di
.	.	[2G/	vo-	.	.	.	.
4D\	.	.	.	.	.	.	.
=21	=21	=21	=21	=21	=21	=21	=21
2E\	.	2G/]	.	1.c	di	2g/]	.
2F\	vo-	2A/	.	.	.	2f/	vo-
2E\	-cem	2G/	-cem	.	.	2g/	-cem
[2D\	me-	[2A/	me-	2d\	vo-	[2f/	me-
=22	=22	=22	=22	=22	=22	=22	=22
2D\]	.	4A/]	.	2B\	-cem	4f/]	.
.	.	4G/	.	.	.	4e/	.
2C/	.	2E/	.	2c\	me-	1e	.
1D	.	1F	.	1A	-am	.	.
.	.	.	.	.	.	2d/	.
=23	=23	=23	=23	=23	=23	=23	=23
[0AA	-am.	[0E	-am	1r	.	[0e	-am.
.	.	.	.	1A	Fi-	.	.
=24	=24	=24	=24	=24	=24	=24	=24
1AA]	.	0E]	.	2.c\	-ant	0e_	.
.	.	.	.	4d\	.	.	.
1r	.	.	.	1B	au-	.	.
=25	=25	=25	=25	=25	=25	=25	=25
0AA	Fi-	1r	.	2A/	-res	0e]	.
.	.	.	.	1c	tu-	.	.
.	.	[1E	Fi-	.	.	.	.
.	.	.	.	4B\	.	.	.
.	.	.	.	4A/	.	.	.
=26	=26	=26	=26	=26	=26	=26	=26
1C	-ant	1E]	.	2G/	.	0r	.
.	.	.	.	1A	.	.	.
1BB	au-	1G	-ant	.	.	.	.
.	.	.	.	2G#i/	.	.	.
=27	=27	=27	=27	=27	=27	=27	=27
1AA	-res	1F	au-	1A	-ae	0r	.
[1C	tu-	1E	-res	1r	.	.	.
=28	=28	=28	=28	=28	=28	=28	=28
1C]	.	0G	tu-	0r	.	0r	.
1GG	-ae	.	.	.	.	.	.
=29	=29	=29	=29	=29	=29	=29	=29
2r	.	1D	-ae	0r	.	0r	.
2D\	in-	.	.	.	.	.	.
2.E\	-ten-	2r	.	.	.	.	.
.	.	2G/	in-	.	.	.	.
4C/	.	.	.	.	.	.	.
=30	=30	=30	=30	=30	=30	=30	=30
0F	-den-	2.A/	-ten-	0r	.	0r	.
.	.	4B\	.	.	.	.	.
.	.	2c\	.	.	.	.	.
.	.	[2d\	-den-	.	.	.	.
=31	=31	=31	=31	=31	=31	=31	=31
2.E\	.	4d\]	.	0r	.	1r	.
.	.	4c\	.	.	.	.	.
.	.	1c	.	.	.	.	.
8D/L	.	.	.	.	.	.	.
8C/J	.	.	.	.	.	.	.
1D	.	.	.	.	.	1d	in
.	.	2B\	.	.	.	.	.
=32	=32	=32	=32	=32	=32	=32	=32
[0C	-tes-	[0c	-tes	0r	.	0g	vo-
=33	=33	=33	=33	=33	=33	=33	=33
0C]	.	0c_	.	1r	.	1g	-cem
.	.	.	.	1E	in	2r	.
.	.	.	.	.	.	[2e/	de-
=34	=34	=34	=34	=34	=34	=34	=34
1r	.	0c]	.	0A	vo-	2e/]	.
.	.	.	.	.	.	2e/	-pre-
1AA	-in	.	.	.	.	2e/	-ca-
.	.	.	.	.	.	2e/	-ti-
=35	=35	=35	=35	=35	=35	=35	=35
0D	vo-	1r	.	1A	-cem	[0f	-o-
.	.	1A	in	2r	.	.	.
.	.	.	.	[2A/	de-	.	.
=36	=36	=36	=36	=36	=36	=36	=36
1D	-cem	1d	vo-	2A/]	.	1f]	.
.	.	.	.	2A/	-pre-	.	.
1r	.	1c	-cem	2A/	-ca-	1e	-nis
.	.	.	.	2A/	-ti-	.	.
=37	=37	=37	=37	=37	=37	=37	=37
2.D\	de-	2.F/	de-	1B	-o-	2d/	me-
.	.	.	.	.	.	2.f/	.
4D\	-pre-	4F/	-pre-	.	.	.	.
2D\	-ca-	2F/	-ca-	1A	-nis	.	.
.	.	.	.	.	.	4g/	.
2D\	-ti-	2F/	-ti-	.	.	4a/	.
.	.	.	.	.	.	4f/	.
=38	=38	=38	=38	=38	=38	=38	=38
1D	-o-	1F	-o-	2r	.	2b-i\	.
.	.	.	.	2.d\	me-	2.a/	.
1E	-nis	1G	-nis	.	.	.	.
.	.	.	.	4B\	.	4g/	.
.	.	.	.	2c\	.	[2g/	.
=39	=39	=39	=39	=39	=39	=39	=39
0D	me-	0A	me-	0d	.	2g/]	.
.	.	.	.	.	.	4f#i/	.
.	.	.	.	.	.	4e/	.
.	.	.	.	.	.	1f#i	.
=40	=40	=40	=40	=40	=40	=40	=40
[0GG	-ae.	[0G	-ae.	0B	-ae.	0g	-ae.
=41	=41	=41	=41	=41	=41	=41	=41
0GG]	.	0G]	.	0r	.	1r	.
.	.	.	.	.	.	1d	Si
=42	=42	=42	=42	=42	=42	=42	=42
0r	.	0r	.	1G	Si	1g	in-
.	.	.	.	1c	in-	2g/	-i-
.	.	.	.	.	.	2g/	-qui-
=43	=43	=43	=43	=43	=43	=43	=43
1r	.	0r	.	2c\	-i-	2.g/	-ta-
.	.	.	.	2c\	-qui-	.	.
.	.	.	.	.	.	4a/	.
1GG	Si	.	.	1d	-ta-	1b	.
=44	=44	=44	=44	=44	=44	=44	=44
1C	in-	1E	Si	1c	-tes	0e	-tes
2C/	-i-	1G	in-	[1e	ob-	.	.
2C/	-qui-	.	.	.	.	.	.
=45	=45	=45	=45	=45	=45	=45	=45
2.C/	-ta-	1.G	-i-	1e]	.	1g	ob-
4D\	.	.	.	.	.	.	.
1E	.	.	.	1e	-ser-	1g	-ser-
.	.	2G/	-qui-	.	.	.	.
=46	=46	=46	=46	=46	=46	=46	=46
1AA	-tes	1A	-ta-	1e	-va-	1cc	-va-
[1E	ob-	1G	-tes	1e	-ve-	1b	-ver-
=47	=47	=47	=47	=47	=47	=47	=47
1E]	.	2r	.	[0e	-ris	0b	-ris
.	.	1G	ob-	.	.	.	.
1E	-ser-	.	.	.	.	.	.
.	.	2G/	-ser-	.	.	.	.
=48	=48	=48	=48	=48	=48	=48	=48
1AA	-va-	1c	-va-	0e_	.	1a	Do-
1AA	-ve-	1c	-ve-	.	.	1a	-mi-
=49	=49	=49	=49	=49	=49	=49	=49
0E	-ris	0B	-ris	0e]	.	0b	-ne
=50	=50	=50	=50	=50	=50	=50	=50
1F	Do-	1A	Do-	1c	Do-	0r	.
1F	-mi-	1A	-mi-	1d	-mi-	.	.
=51	=51	=51	=51	=51	=51	=51	=51
[0E	-ne.	[0B	-ne.	1e	-ne	1.g	Do-
.	.	.	.	2r	.	.	.
.	.	.	.	[2e\	Do-	2g/	-mi-
=52	=52	=52	=52	=52	=52	=52	=52
0E]	.	0B]	.	2e\]	.	1g	-ne
.	.	.	.	2e\	-mi-	.	.
.	.	.	.	2e\	-ne	1g	quis
.	.	.	.	2e\	quis	.	.
=53	=53	=53	=53	=53	=53	=53	=53
0r	.	0r	.	4f\	su-	1a	su-
.	.	.	.	4e\	.	.	.
.	.	.	.	4d\	.	.	.
.	.	.	.	4c\	.	.	.
.	.	.	.	2d\	-sti-	2f/	-sti-
.	.	.	.	[2e\	-ne-	[2g/	-ne-
=54	=54	=54	=54	=54	=54	=54	=54
0r	.	0r	.	4e\]	.	4g/]	.
.	.	.	.	4d\	.	4f/	.
.	.	.	.	1d	.	4e/	.
.	.	.	.	.	.	4d/	.
.	.	.	.	.	.	1e	.
.	.	.	.	2c#i\	.	.	.
=55	=55	=55	=55	=55	=55	=55	=55
1.D	Do-	1r	.	0d	-bit?	0d	-bit?
.	.	1A	Do-	.	.	.	.
2D\	-mi-	.	.	.	.	.	.
=56	=56	=56	=56	=56	=56	=56	=56
1D	-ne	2B\	-mi-	0r	.	0r	.
.	.	1A	-ne	.	.	.	.
1D	quis	.	.	.	.	.	.
.	.	[2d\	quis	.	.	.	.
=57	=57	=57	=57	=57	=57	=57	=57
1E	su-	4d\]	.	0r	.	0r	.
.	.	8c\L	.	.	.	.	.
.	.	8B\J	.	.	.	.	.
.	.	2.c\	.	.	.	.	.
2C/	-sti-	.	.	.	.	.	.
.	.	4B\	.	.	.	.	.
[2D\	-ne-	[2B\	.	.	.	.	.
=58	=58	=58	=58	=58	=58	=58	=58
4D\]	.	4B\]	.	0r	.	1r	.
4C/	.	4A/	.	.	.	.	.
4BB/	.	2.A/	.	.	.	.	.
4AA/	.	.	.	.	.	.	.
1BB	.	.	.	.	.	2.d/	su-
.	.	4G#i/	.	.	.	.	.
.	.	2G#i/	.	.	.	.	.
.	.	.	.	.	.	4e/	.
=59	=59	=59	=59	=59	=59	=59	=59
1AA	.	1A	su-	2r	.	2f/	.
.	.	.	.	2.A/	su-	2e/	.
2D\	.	2F/	-sti-	.	.	2d/	-sti-
.	.	.	.	4B\	.	.	.
2C/	.	[2G/	-ne-	2c\	-sti-	[2e/	.
=60	=60	=60	=60	=60	=60	=60	=60
1BB	.	4G/]	.	2d\	-ne-	4e/]	.
.	.	4F/	.	.	.	4d/	.
.	.	4E/	.	2G/	.	1d	-ne-
.	.	4D/	.	.	.	.	.
1AA	-bit?-	1E	.	1A	.	.	.
.	.	.	.	.	.	2c#i/	.
=61	=61	=61	=61	=61	=61	=61	=61
0r	.	[0D	-bit?	0A	-bit?	0d	-bit?
=62	=62	=62	=62	=62	=62	=62	=62
0r	.	0D_	.	1r	.	0r	.
.	.	.	.	[1d	Qui-	.	.
=63	=63	=63	=63	=63	=63	=63	=63
0r	.	0D]	.	1d]	.	0a	Qui-
.	.	.	.	1d	-a	.	.
=64	=64	=64	=64	=64	=64	=64	=64
0r	.	0r	.	1f	a-	1a	-a
.	.	.	.	1c	-pud	1cc	a-
=65	=65	=65	=65	=65	=65	=65	=65
0E	-Qui-	1r	.	0e	te	1g	-oud
.	.	[1B	Qui-	.	.	[1b	te
=66	=66	=66	=66	=66	=66	=66	=66
1E	-a	1B]	.	0r	.	0b]	.
1G	a-	1B	-a	.	.	.	.
=67	=67	=67	=67	=67	=67	=67	=67
1D	-pud	1d	a-	0r	.	1r	.
[1F	te	1A	-pud	.	.	1a	pro-
=68	=68	=68	=68	=68	=68	=68	=68
0F]	.	0c	te	1A	pro-	2a/	-pi-
.	.	.	.	.	.	2a/	-ti-
.	.	.	.	2A/	-pt-	2cc\	-a-
.	.	.	.	2A/	-ti-	2cc\	-ti-
=69	=69	=69	=69	=69	=69	=69	=69
1r	.	0r	.	2c\	-a-	1g	-o
.	.	.	.	2c\	-ti	.	.
1E	pro-	.	.	1G	o	[1b	est
=70	=70	=70	=70	=70	=70	=70	=70
2E\	-pi-	1B	pro-	0B	est,	0b]	.
2E\	-ti-	.	.	.	.	.	.
2G\	-a-	2B\	-pi-	.	.	.	.
2G\	-ti-	2B\	-ti-	.	.	.	.
=71	=71	=71	=71	=71	=71	=71	=71
1D	-o	2d\	-at-	0r	.	1r	.
.	.	2d\	-ti-	.	.	.	.
[1F	est	1A	-o	.	.	1a	et
=72	=72	=72	=72	=72	=72	=72	=72
0F]	.	0c	est,	1A	et	2a/	prop-
.	.	.	.	.	.	2a/	-ter
.	.	.	.	2A/	prop-	2.cc\	leg-
.	.	.	.	2A/	-ter	.	.
.	.	.	.	.	.	4b\	.
=73	=73	=73	=73	=73	=73	=73	=73
0r	.	0r	.	2c\	le-	2a/	.
.	.	.	.	2c\	-gem	2g/	-gem
.	.	.	.	1d	tu-	1f	tu-
=74	=74	=74	=74	=74	=74	=74	=74
1r	.	1A	et	0e	-am	0e	-am
1AA	et	2A/	pro-	.	.	.	.
.	.	2A/	-pter	.	.	.	.
=75	=75	=75	=75	=75	=75	=75	=75
2AA/	pro-	2.c\	le-	0r	.	0r	.
2AA/	-pter	.	.	.	.	.	.
.	.	4B\	.	.	.	.	.
2C/	le-	2A/	.	.	.	.	.
2C/	-gem	2G/	-gem	.	.	.	.
=76	=76	=76	=76	=76	=76	=76	=76
1D	tu-	1F	tu-	1r	.	1r	.
1E	.	1E	-am	1B	su-	1g	su-
=77	=77	=77	=77	=77	=77	=77	=77
0C	-am	1G	su-	1.c	-sti-	2g/	-sti-
.	.	.	.	.	.	2g/	-nu-
.	.	[1G	-sti-	.	.	2e/	-i
.	.	.	.	2c\	-nu-	[2g/	te
=78	=78	=78	=78	=78	=78	=78	=78
1C	su-	1G]	.	1c	-i	4g/]	.
.	.	.	.	.	.	4f/	.
.	.	.	.	.	.	4e/	.
.	.	.	.	.	.	4d/	.
[1F	-sti-	[1A	-nu-	1c	te	2c/	.
.	.	.	.	.	.	[2cc\	Do=-
=79	=79	=79	=79	=79	=79	=79	=79
1F]	.	1A]	.	1c	Do-	2cc\]	.
.	.	.	.	.	.	2b\	.
1F	-nu-	1A	-i	1d	-mi-	1a	-mi-
=80	=80	=80	=80	=80	=80	=80	=80
1.E	-i	1B	te	1e	-ne.	0g	-ne.
.	.	1G	Do-	1r	.	.	.
2D\	te	.	.	.	.	.	.
=81	=81	=81	=81	=81	=81	=81	=81
1C	Do-	2G/	.	1e	Su-	1r	.
.	.	2G/	-mi	.	.	.	.
1BB	.	1D	ne.	2d\	-sti-	1g	Su-
.	.	.	.	2d\	-nu-	.	.
=82	=82	=82	=82	=82	=82	=82	=82
0AA	-mi-	2r	.	2.c\	-it	1cc	-sti-
.	.	2A/	Su-	.	.	.	.
.	.	.	.	8d\L	.	.	.
.	.	.	.	8e\J	.	.	.
.	.	2A/	-sti-	2f\	.	1cc	-nu-
.	.	2A/	-nu-	[2e\	a-	.	.
=83	=83	=83	=83	=83	=83	=83	=83
0GG	-no.	1D	-it	4e\]	.	1b	-it
.	.	.	.	4d\	-ni-	.	.
.	.	.	.	1d	-ma-	.	.
.	.	2D/	a-	.	.	2r	.
.	.	2E/	-ni-	4c\	.	2g/	a-
.	.	.	.	4B\	.	.	.
=84	=84	=84	=84	=84	=84	=84	=84
0r	.	2F/	-ma	2A/	-ma	2a/	-ni-
.	.	2.G/	me-	2G/	.	2b\	-ma
.	.	.	.	1A	mea-	1cc	me-
.	.	4F#i/	.	.	.	.	.
.	.	2F#i/	.	.	.	.	.
=85	=85	=85	=85	=85	=85	=85	=85
0r	.	0G	-a	1G	-a	0b	-a
.	.	.	.	2r	.	.	.
.	.	.	.	2d\	in	.	.
=86	=86	=86	=86	=86	=86	=86	=86
0r	.	0r	.	1e	ver-	1g	in
.	.	.	.	2.f\	.	2.a/	ver-
.	.	.	.	4e\	.	4g/	.
=87	=87	=87	=87	=87	=87	=87	=87
1r	.	0r	.	4d\	.	2f/	.
.	.	.	.	4c\	.	.	.
.	.	.	.	1c	-bo	2e/	-bo
1GG	Spe-	.	.	.	.	1d	e-
.	.	.	.	2B\	e-	.	.
=88	=88	=88	=88	=88	=88	=88	=88
[0C	-ra	1G	Spe-	1c	-ius.	0c	-ius.
.	.	[1G	-ra-	1e	Spe-	.	.
=89	=89	=89	=89	=89	=89	=89	=89
1C]	.	2G/]	.	1.e	-ra-	1r	.
.	.	2G/	-vit	.	.	.	.
1C	vit	2E/	a-	.	.	1c	Spe-
.	.	2E/	-ni-	2e\	-vit	.	.
=90	=90	=90	=90	=90	=90	=90	=90
1D	a-	1F	-ma	1d	a-	1.f	-ra-
1D	-ni-	1F	me-	1d	-ni-	.	.
.	.	.	.	.	.	2f/	-vit
=91	=91	=91	=91	=91	=91	=91	=91
1F	-ma	0A	-a	1c	-ma	1f	a-
1F	me-	.	.	1c	me-	1f	-ni-
=92	=92	=92	=92	=92	=92	=92	=92
0C	-a	1r	.	2.e\	.	1g	-ma
.	.	.	.	4d\	.	.	.
.	.	1E	in	4e\	.	1g	me-
.	.	.	.	4d\	.	.	.
.	.	.	.	4c\	.	.	.
.	.	.	.	4B\	.	.	.
=93	=93	=93	=93	=93	=93	=93	=93
1r	.	1.F	Do-	0A	-a	1.a	-a
[1D	in	.	.	.	.	.	.
.	.	2G/	.	.	.	2g/	in
=94	=94	=94	=94	=94	=94	=94	=94
1D]	.	1A	.	1r	.	1f	Do-
1C	.	1E	.	1c	in	1e	.
=95	=95	=95	=95	=95	=95	=95	=95
1D	Do-	0F	-mi-	1A	Do-	2d/	.
.	.	.	.	.	.	1f	.
1D	-mi-	.	.	1B	-mi-	.	.
.	.	.	.	.	.	4e/	-mi
.	.	.	.	.	.	4d/	.
=96	=96	=96	=96	=96	=96	=96	=96
0AAl	-no.	0El	-no.	0Al	-no.	0cl	no.
!!LO:LB:i:g=z
=97||	=97||	=97||	=97||	=97||	=97||	=97||	=97||
*>B	*>B	*>B	*>B	*>B	*>B	*>B	*>B
*clefF4	*	*clefGv2	*	*clefGv2	*	*clefG2	*
*k[]	*	*k[]	*	*k[]	*	*k[]	*
*M2/1	*	*M2/1	*	*M2/1	*	*M2/1	*
*met(C|)	*	*met(C|)	*	*met(C|)	*	*met(C|)	*
!!section: Secunda pars: A custodia
!!!OMD: Secunda pars
1.C	A	1r	.	0r	.	0r	.
.	.	[1G	A	.	.	.	.
2C/	cus-	.	.	.	.	.	.
=98	=98	=98	=98	=98	=98	=98	=98
2C/	-to-	2G/]	.	0r	.	0r	.
2C/	-di-	2G/	cu-	.	.	.	.
1GG	-a	2G/	-sto-	.	.	.	.
.	.	2G/	-di-	.	.	.	.
=99	=99	=99	=99	=99	=99	=99	=99
1GG	ma-	1D	-a	0r	.	0r	.
2.BB/	-tu-	1D	ma-	.	.	.	.
4GG/	-ti-	.	.	.	.	.	.
=100	=100	=100	=100	=100	=100	=100	=100
0D	-na	2.F/	-tu-	0r	.	0r	.
.	.	4D/	-ti-	.	.	.	.
.	.	[1A	-na	.	.	.	.
=101	=101	=101	=101	=101	=101	=101	=101
2r	.	1A]	.	0r	.	0r	.
1D	us-	.	.	.	.	.	.
.	.	1r	.	.	.	.	.
2C/	-que	.	.	.	.	.	.
=102	=102	=102	=102	=102	=102	=102	=102
1D	ad	2r	.	0r	.	0r	.
.	.	1A	us-	.	.	.	.
1BB	no-	.	.	.	.	.	.
.	.	2G/	-que	.	.	.	.
=103	=103	=103	=103	=103	=103	=103	=103
1AA	-ctem	1A	ad	0r	.	2r	.
.	.	.	.	.	.	1e	Us-
1r	.	1F	no-	.	.	.	.
.	.	.	.	.	.	2d/	-que
=104	=104	=104	=104	=104	=104	=104	=104
1r	.	0E	-ctem	1r	.	1e	ad
1AA	spe-	.	.	2r	.	1c	no-
.	.	.	.	[2A/	Us-	.	.
=105	=105	=105	=105	=105	=105	=105	=105
1E	.	1r	.	2A/]	.	1B	-ctem
.	.	.	.	2G/	-que	.	.
[1AA	-ret-	1E	spe-	1A	ad	2r	.
.	.	.	.	.	.	[2c/	spe-
=106	=106	=106	=106	=106	=106	=106	=106
2AA/]	.	1A	.	1F	no-	2c/]	.
2BB/	-I-	.	.	.	.	2d/	-ret
2.C/	-sra-	[1G	-ret	1E	-ctem	2e/	I-
.	.	.	.	.	.	2f/	-sra-
4D\	.	.	.	.	.	.	.
=107	=107	=107	=107	=107	=107	=107	=107
1.E	.	1G]	.	2r	.	2.g/	-el
.	.	.	.	1e	spe-	.	.
.	.	.	.	.	.	4a/	.
.	.	1G	I-	.	.	4b\	.
.	.	.	.	.	.	4cc\	.
2E\	-el	.	.	2e\	-rat	[2b\	.
=108	=108	=108	=108	=108	=108	=108	=108
1E	Do-	1c	-srae-	1e	I-	4b\]	.
.	.	.	.	.	.	4a/	in
.	.	.	.	.	.	1a	Do-
1E	-mi-	1B	-el	1e	-srae-	.	.
.	.	.	.	.	.	2g#i/	-mi-
=109	=109	=109	=109	=109	=109	=109	=109
[0AA	-no.	1.A	in-	2.c\	-el	0a	-no.
.	.	.	.	8d\L	.	.	.
.	.	.	.	8e\J	.	.	.
.	.	.	.	2f\	.	.	.
.	.	2G/	.	[2e\	in	.	.
=110	=110	=110	=110	=110	=110	=110	=110
0AA]	.	2.F/	-Do-	4e\]	.	1r	.
.	.	.	.	4d\	.	.	.
.	.	.	.	1d	Do-	.	.
.	.	8E/L	.	.	.	.	.
.	.	8D/J	.	.	.	.	.
.	.	1E	-mi-	.	.	1a	Qui-
.	.	.	.	2c#i\	-mi-	.	.
=111	=111	=111	=111	=111	=111	=111	=111
[0D	.	1D	-no.	[0d	-no,	1a	-a
.	.	1r	.	.	.	[1f	a-
=112	=112	=112	=112	=112	=112	=112	=112
0D]	.	1A	Qui-	0d]	.	2f/]	.
.	.	.	.	.	.	2g/	-pud
.	.	1A	-a	.	.	2a/	Do-
.	.	.	.	.	.	2b\	-mi-
=113	=113	=113	=113	=113	=113	=113	=113
0r	.	1.F	a-	0r	.	1cc	-num
.	.	.	.	.	.	1cc	mi-
.	.	2G/	-pud	.	.	.	.
=114	=114	=114	=114	=114	=114	=114	=114
0r	.	2A/	Do-	0r	.	2cc\	-se-
.	.	2B\	-mi-	.	.	2cc\	-ri-
.	.	1c	-num	.	.	2cc\	-cor-
.	.	.	.	.	.	2cc\	-di-
=115	=115	=115	=115	=115	=115	=115	=115
0r	.	1c	mi-	1e	mi-	1g	-a
.	.	2c\	-se-	2e\	-se-	2r	.
.	.	2c\	-ri-	2e\	-ri-	2g/	et
=116	=116	=116	=116	=116	=116	=116	=116
0r	.	2c\	-cor-	2e\	-cor-	2g/	co-
.	.	2c\	-di-	2e\	-di-	2g/	-pi-
.	.	1G	-a	1d	-a	1b	-o-
=117	=117	=117	=117	=117	=117	=117	=117
0r	.	0r	.	2r	.	0a	-sa
.	.	.	.	2d\	et	.	.
.	.	.	.	2d\	co-	.	.
.	.	.	.	2d\	-pi-	.	.
=118	=118	=118	=118	=118	=118	=118	=118
0r	.	0r	.	1f	-o-	1a	a-
.	.	.	.	1e	-sa	2g/	-pud
.	.	.	.	.	.	2g/	De-
=119	=119	=119	=119	=119	=119	=119	=119
0r	.	0r	.	2r	.	2e/	-um
.	.	.	.	2d\	a-	2.a/	re-
.	.	.	.	2d\	-pud	.	.
.	.	.	.	.	.	4g/	.
.	.	.	.	2d\	De-	4f/	.
.	.	.	.	.	.	4e/	.
=120	=120	=120	=120	=120	=120	=120	=120
0r	.	2r	.	2B\	-um	2d/	.
.	.	1C	re-	1c	re-	1e	-dem-
.	.	2D/	.	4B\	.	4d/	.
.	.	.	.	4A/	.	4c/	.
=121	=121	=121	=121	=121	=121	=121	=121
0r	.	2E/	-dem-	2G/	-dem-	2B/	.
.	.	2F/	-pti-	1A	.	2A/	.
.	.	1E	-o	.	.	1B	-pti-
.	.	.	.	2G#i/	-pti-	.	.
=122	=122	=122	=122	=122	=122	=122	=122
1AA	Et	1r	.	0A	-o.	0A	-o.
1D	i-	1F	Et	.	.	.	.
=123	=123	=123	=123	=123	=123	=123	=123
1C	-pse	1G	i-	0r	.	0r	.
[1F	re-	1A	-pse	.	.	.	.
=124	=124	=124	=124	=124	=124	=124	=124
2F\]	.	1.A	re-	0r	.	0r	.
2F\	-di-	.	.	.	.	.	.
1F	-met	.	.	.	.	.	.
.	.	2A/	-di-	.	.	.	.
=125	=125	=125	=125	=125	=125	=125	=125
2r	.	1A	-met	0r	.	0r	.
2F\	I-	.	.	.	.	.	.
2E\	.	2G/	I-	.	.	.	.
[2F\	.	[2A/	.	.	.	.	.
=126	=126	=126	=126	=126	=126	=126	=126
4F\]	.	4A/]	.	0r	.	0r	.
4E\	.	4B\	.	.	.	.	.
4D\	.	1c	.	.	.	.	.
4C/	.	.	.	.	.	.	.
1D	-sra-	.	.	.	.	.	.
.	.	2B\	-srae-	.	.	.	.
=127	=127	=127	=127	=127	=127	=127	=127
[0C	-el.	0c	-el	1r	.	1e	ex
.	.	.	.	[1G	ex	[1e	o-
=128	=128	=128	=128	=128	=128	=128	=128
0C_	.	1r	.	1G]	.	2e/]	.
.	.	.	.	.	.	2e/	-mni-
.	.	1c	ex	[1G	o-	1e	-bus
=129	=129	=129	=129	=129	=129	=129	=129
0C]	.	2c\	o-	2G/]	.	2r	.
.	.	2c\	-mni-	2G/	-mni-	2g/	in-
.	.	1c	-bus	4G/	-bus-	2g/	-i-
.	.	.	.	4A/	.	.	.
.	.	.	.	4B\	.	2e/	-qui-
.	.	.	.	4c\	.	.	.
=130	=130	=130	=130	=130	=130	=130	=130
0r	.	2r	.	1d	.	2f/	-ta-
.	.	2G/	in-	.	.	2g/	-ti-
.	.	2.A/	-i-	2r	.	[1c	-bus-
.	.	.	.	2A/	-in-	.	.
.	.	4G/	.	.	.	.	.
=131	=131	=131	=131	=131	=131	=131	=131
0r	.	2F/	-qui-	2A/	-i-	1c]	.
.	.	2F/	-ta-	2A/	-qui-	.	.
.	.	2E/	-ti-	1B	-ta-	2.g/	-e-
.	.	[2G/	-bus	.	.	.	.
.	.	.	.	.	.	4a/	.
=132	=132	=132	=132	=132	=132	=132	=132
0r	.	2G/]	.	2d\	-ti-	2b\	.
.	.	2E/	e-	2e\	-bus	2.cc\	.
.	.	2F/	.	1d	e-	.	.
.	.	.	.	.	.	4b\	.
.	.	2G/	.	.	.	2b\	.
=133	=133	=133	=133	=133	=133	=133	=133
1r	.	1C	-us.	[0c	-ius	[0cc	-ius.
[1C	Glo-	1G	Glo-	.	.	.	.
=134	=134	=134	=134	=134	=134	=134	=134
2C/]	.	2G/	-ri-	0c]	.	0cc]	.
2C/	-ri-	2G/	-a	.	.	.	.
1C	-a	1A	Pa-	.	.	.	.
=135	=135	=135	=135	=135	=135	=135	=135
1D	Pa-	1B	-tri	0r	.	0r	.
[1E	-tri	2r	.	.	.	.	.
.	.	[2G/	et	.	.	.	.
=136	=136	=136	=136	=136	=136	=136	=136
2E\]	.	2G/]	.	0r	.	0r	.
2F\	et	2A/	.	.	.	.	.
2E\	Fi-	2G/	Fi-	.	.	.	.
[2F\	.	[2A/	-li-	.	.	.	.
=137	=137	=137	=137	=137	=137	=137	=137
4F\]	.	4A/]	.	0r	.	0r	.
4E\	.	4G/	.	.	.	.	.
1E	.	2E/	.	.	.	.	.
.	.	1F	.	.	.	.	.
2D\	-li	.	.	.	.	.	.
=138	=138	=138	=138	=138	=138	=138	=138
1E	o	1E	-o-	1.e	et	0g	et
2r	.	[1G	-et	.	.	.	.
[2E\	et	.	.	2d\	Spi-	.	.
=139	=139	=139	=139	=139	=139	=139	=139
2E\]	.	2G/]	.	2c\	-ri-	1g	Spi-
2D\	Spi-	2F/	Spi-	2B\	-tu-	.	.
2C/	-ri-	2E/	-ri-	1e	-i	1g	-ri-
2BB/	-tu-	2D/	-tu-	.	.	.	.
=140	=140	=140	=140	=140	=140	=140	=140
0AA	-i	1C	-i	0e	San-	0cc	-tu-
.	.	1E	San-	.	.	.	.
=141	=141	=141	=141	=141	=141	=141	=141
0E	San-	2.G/	.	[0e	-cto	2b\	-i
.	.	.	.	.	.	2.a/	San-
.	.	4A/	.	.	.	.	.
.	.	1B	.	.	.	.	.
.	.	.	.	.	.	4g#i/	.
.	.	.	.	.	.	2g#i/	.
=142	=142	=142	=142	=142	=142	=142	=142
[0AA	-cto.	2A/	-cto.	0e_	.	0a	-cto.
.	.	2c\	Si-	.	.	.	.
.	.	2A/	-cut	.	.	.	.
.	.	[2c\	e-	.	.	.	.
=143	=143	=143	=143	=143	=143	=143	=143
0AA_	.	4c\]	.	0e]	.	2r	.
.	.	4B\	.	.	.	.	.
.	.	4A/	.	.	.	2cc\	Si-
.	.	4G/	.	.	.	.	.
.	.	2A/	.	.	.	2a/	-cut
.	.	2E/	.	.	.	[2cc\	e-
=144	=144	=144	=144	=144	=144	=144	=144
0AA]	.	[0E	-rat	2r	.	4cc\]	.
.	.	.	.	.	.	4b\	.
.	.	.	.	2c\	Si-	4a/	.
.	.	.	.	.	.	4g/	.
.	.	.	.	2A/	-cut	2a/	.
.	.	.	.	[2c\	e-	2e/	.
=145	=145	=145	=145	=145	=145	=145	=145
2r	.	0E]	.	4c\]	.	[0e	-rat
.	.	.	.	4B\	.	.	.
2C/	Si-	.	.	4A/	.	.	.
.	.	.	.	4G/	.	.	.
2AA/	-cut	.	.	2A/	.	.	.
[2C/	e-	.	.	2E/	.	.	.
=146	=146	=146	=146	=146	=146	=146	=146
4C/]	.	1r	.	1E	-rat	0e]	.
4BB/	.	.	.	.	.	.	.
4AA/	.	.	.	.	.	.	.
4GG/	.	.	.	.	.	.	.
2AA/	.	2r	.	2r	.	.	.
2EE/	.	2E/	in	[2G/	e-	.	.
=147	=147	=147	=147	=147	=147	=147	=147
[0EE	-rat	2E/	prin-	4G/]	.	2r	.
.	.	.	.	4A/	.	.	.
.	.	2.G/	-ci-	2B\	.	2e/	in
.	.	.	.	1E	-rat	2e/	prin-
.	.	4F/	.	.	.	.	.
.	.	4E/	.	.	.	[2g/	-ci-
.	.	4D/	.	.	.	.	.
=148	=148	=148	=148	=148	=148	=148	=148
0EE]	.	2E/	.	2r	.	4g/]	.
.	.	.	.	.	.	4f/	.
.	.	2BB/	-pi-	2.G/	in	4e/	.
.	.	.	.	.	.	4d/	.
.	.	1BB	-o	.	.	2e/	.
.	.	.	.	4A/	.	.	.
.	.	.	.	2B\	.	2B/	-pi-
=149	=149	=149	=149	=149	=149	=149	=149
2r	.	1r	.	2E/	prin-	[0B	-o
2E\	in	.	.	2.G/	-ci-	.	.
2E\	prin-	2r	.	.	.	.	.
.	.	.	.	4A/	.	.	.
[2G\	-ci-	2E/	et	2B\	-pi-	.	.
=150	=150	=150	=150	=150	=150	=150	=150
4G\]	.	2E/	nunc	1E	-o	0B]	.
4F\	.	.	.	.	.	.	.
4E\	.	2.G/	et	.	.	.	.
4D\	.	.	.	.	.	.	.
2E\	.	.	.	1r	.	.	.
.	.	4A/	.	.	.	.	.
2BB/	-pi-	4B\	.	.	.	.	.
.	.	4c\	.	.	.	.	.
=151	=151	=151	=151	=151	=151	=151	=151
1BB	-o	1d	.	1r	.	1B	et
1E	et	1G	sem-	1e	et	2.B/	nunc-
.	.	.	.	.	.	4c/	.
=152	=152	=152	=152	=152	=152	=152	=152
2D\	nunc	2F/	.	2A/	nunc	2d/	.
2C/	et	2.G/	.	2c\	et	2.e/	-et-
1BB	sem-	.	.	2d\	sem-	.	.
.	.	4F/	.	.	.	4d/	.
.	.	2D/	.	2G/	.	[2d/	-sem-
=153	=153	=153	=153	=153	=153	=153	=153
1AA	-per,	1E	.	0A	-per,	2d/]	.
.	.	.	.	.	.	2c#i/	.
[1D	et-	1D	-per,	.	.	1d	-per,
=154	=154	=154	=154	=154	=154	=154	=154
2D\]	.	1.A	et	1.d	et	0r	.
2D\	-in	.	.	.	.	.	.
2D\	se-	.	.	.	.	.	.
2D\	-cu-	2A/	in	2d\	in	.	.
=155	=155	=155	=155	=155	=155	=155	=155
1D	-la	2A/	se-	2.f\	se-	0r	.
.	.	2A/	-cu-	.	.	.	.
.	.	.	.	4e\	-cu-	.	.
2.F\	se-	1A	-la	2d\	-la	.	.
.	.	.	.	2c\	se-	.	.
4E\	-cu-	.	.	.	.	.	.
=156	=156	=156	=156	=156	=156	=156	=156
2D\	-lo-	1r	.	2f\	-cu-	0r	.
2C/	-rum,	.	.	2.e\	-lo-	.	.
1F	A-	1A	se-	.	.	.	.
.	.	.	.	4d\	.	.	.
.	.	.	.	2d\	.	.	.
=157	=157	=157	=157	=157	=157	=157	=157
[0E	-men.	1B	-cu-	[0e	-rum	1r	.
.	.	1B	-lo-	.	.	[1g	et-
=158	=158	=158	=158	=158	=158	=158	=158
0E]	.	0G	-rum.	0e_	.	2g/]	.
.	.	.	.	.	.	2g/	-in
.	.	.	.	.	.	2g/	se-
.	.	.	.	.	.	2g/	-cu-
=159	=159	=159	=159	=159	=159	=159	=159
1r	.	2.c\	A-	0e]	.	1g	-la
.	.	4B\	.	.	.	.	.
[1C	Et	2A/	.	.	.	2.cc\	se-
.	.	4G/	.	.	.	.	.
.	.	4F/	.	.	.	4b\	-cu-
=160	=160	=160	=160	=160	=160	=160	=160
2C/]	.	4E/	.	1r	.	2a/	-lo-
.	.	4D/	.	.	.	.	.
2BB/	in	1G	.	.	.	2g/	-rum.
1AA	se-	.	.	2.c\	se-	1cc	A-
.	.	2F#i/	.	.	.	.	.
.	.	.	.	4d\	.	.	.
=161	=161	=161	=161	=161	=161	=161	=161
2.GG/	-cu-	2.G/	.	2e\	-cu-	1b	-men,
.	.	.	.	2.d\	-lo-	.	.
4AA/	.	4F/	.	.	.	.	.
2BB/	-la	2D/	.	.	.	2r	.
.	.	.	.	4c\	.	.	.
2C/	se-	2E/	.	2A/	.	[2a/	se-
=162	=162	=162	=162	=162	=162	=162	=162
2D\	-cu-	2F/	.	1B	-rum	2a/]	.
2E\	.	2G/	.	.	.	2g/	-cu-
1AA	-lo-	1E	.	2r	.	2.a/	-lo-
.	.	.	.	[2A/	et	.	.
.	.	.	.	.	.	4g/	.
=163	=163	=163	=163	=163	=163	=163	=163
0D	-rum.	0F	-men.	2A/]	.	4f/	.
.	.	.	.	.	.	4e/	.
.	.	.	.	2A/	in	1e	-rum.
.	.	.	.	2A/	se-	.	.
.	.	.	.	2A/	-cu-	2d/	A
=164	=164	=164	=164	=164	=164	=164	=164
1.AA	.	[0El	A-	1A	-la	[0el	men.
.	.	.	.	2.c\	se-	.	.
2BB/	A-	.	.	.	.	.	.
.	.	.	.	4B\	-cu-	.	.
=165	=165	=165	=165	=165	=165	=165	=165
1C	.	0E_	.	2A/	-lo-	0e_	.
.	.	.	.	2G/	-rum,	.	.
1AA	.	.	.	1c	A-	.	.
=166	=166	=166	=166	=166	=166	=166	=166
0E	.	0E_	-men.	[0Bl	-men.	0e_	.
=167	=167	=167	=167	=167	=167	=167	=167
0EEl	-men.	0E]	.	0B]	.	0e]	.
==	==	==	==	==	==	==	==
*-	*-	*-	*-	*-	*-	*-	*-
!!!RDF**kern: l=long note in original notation
!!!RDF**kern: i=editorial accidental
!!!ENC:	Will Watson 15/12/2011, text underlay: Peter Pesic 2014/06/14
!!!END:	2012/12/15/ 
!!!EED:	Jesse Rodin
!!!EEV:	2014/06/17/
!!attribution-level@Jos: 4 (questionable)
!!!ONB:	Translated from MusicXML and edited on 2014/06/17/ by Craig Sapp
!!muse2ps: C^@{COA}\n@{SCT}^u^(2) @{OTL2}^i2I100v110,105,105,105,130c180
